examples/assets/ic_github_black_24dp.svg

<?xml version="1.0" encoding="utf-8"?>
<!-- Generator: Adobe Illustrator 19.0.0, SVG Export Plug-In . SVG Version: 6.00 Build 0)  -->
<svg version="1.1" id="Layer_1" xmlns="http://www.w3.org/2000/svg" xmlns:xlink="http://www.w3.org/1999/xlink" x="0px" y="0px"
	 width="24px" height="24px" viewBox="0 0 24 24" enable-background="new 0 0 24 24" xml:space="preserve" fill="#ff5252">
<g id="XMLID_399_">
	<path id="XMLID_290_" fill-rule="evenodd" clip-rule="evenodd" d="M12,2C6.48,2,2,6.59,2,12.25c0,4.53,2.87,8.37,6.84,9.73
		c0.5,0.09,0.68-0.22,0.68-0.49c0-0.24-0.01-0.89-0.01-1.74c-2.78,0.62-3.37-1.37-3.37-1.37c-0.45-1.18-1.11-1.5-1.11-1.5
		c-0.91-0.64,0.07-0.62,0.07-0.62c1,0.07,1.53,1.06,1.53,1.06c0.89,1.57,2.34,1.11,2.91,0.85c0.09-0.66,0.35-1.11,0.63-1.37
		c-2.22-0.26-4.56-1.14-4.56-5.07c0-1.12,0.39-2.03,1.03-2.75c-0.1-0.26-0.45-1.3,0.1-2.71c0,0,0.84-0.28,2.75,1.05
		c0.8-0.23,1.65-0.34,2.5-0.34c0.85,0,1.7,0.12,2.5,0.34c1.91-1.33,2.75-1.05,2.75-1.05c0.55,1.41,0.2,2.45,0.1,2.71
		c0.64,0.72,1.03,1.63,1.03,2.75c0,3.94-2.34,4.81-4.57,5.06c0.36,0.32,0.68,0.94,0.68,1.9c0,1.37-0.01,2.48-0.01,2.81
		c0,0.27,0.18,0.59,0.69,0.49c3.97-1.36,6.83-5.2,6.83-9.73C22,6.59,17.52,2,12,2"/>
	<rect id="XMLID_289_" fill-rule="evenodd" clip-rule="evenodd" fill="none" width="24" height="24"/>
</g>
</svg>

<?xml version="1.0" encoding="UTF-8"?>
<svg width="24px" height="24px" viewBox="0 0 24 24" version="1.1" xmlns="http://www.w3.org/2000/svg" xmlns:xlink="http://www.w3.org/1999/xlink">
    <!-- Generator: Sketch 53.2 (72643) - https://sketchapp.com -->
    <title>Artboard</title>
    <desc>Created with Sketch.</desc>
    <g id="Artboard" stroke="none" stroke-width="1" fill="none" fill-rule="evenodd">
        <g id="ic_github_black_24dp">
            <path d="M12,2 C6.48,2 2,6.59 2,12.25 C2,16.78 4.87,20.62 8.84,21.98 C9.34,22.07 9.52,21.76 9.52,21.49 C9.52,21.25 9.51,20.6 9.51,19.75 C6.73,20.37 6.14,18.38 6.14,18.38 C5.69,17.2 5.03,16.88 5.03,16.88 C4.12,16.24 5.1,16.26 5.1,16.26 C6.1,16.33 6.63,17.32 6.63,17.32 C7.52,18.89 8.97,18.43 9.54,18.17 C9.63,17.51 9.89,17.06 10.17,16.8 C7.95,16.54 5.61,15.66 5.61,11.73 C5.61,10.61 6,9.7 6.64,8.98 C6.54,8.72 6.19,7.68 6.74,6.27 C6.74,6.27 7.58,5.99 9.49,7.32 C10.29,7.09 11.14,6.98 11.99,6.98 C12.84,6.98 13.69,7.1 14.49,7.32 C16.4,5.99 17.24,6.27 17.24,6.27 C17.79,7.68 17.44,8.72 17.34,8.98 C17.98,9.7 18.37,10.61 18.37,11.73 C18.37,15.67 16.03,16.54 13.8,16.79 C14.16,17.11 14.48,17.73 14.48,18.69 C14.48,20.06 14.47,21.17 14.47,21.5 C14.47,21.77 14.65,22.09 15.16,21.99 C19.13,20.63 21.99,16.79 21.99,12.26 C22,6.59 17.52,2 12,2" id="XMLID_290_" fill="#000000" fill-rule="nonzero"></path>
            <rect id="XMLID_289_" x="0" y="0" width="24" height="24"></rect>
        </g>
    </g>
</svg>
